!!!COM: Palestrina, Giovanni Perluigi da
!!!OPR: Salve regina
!!!OTL: Sanctus
**kern	**kern	**kern	**kern	**kern
*Ibass	*Itenor	*Icalto	*Icalto	*Icant
!Bassus	!Tenor	!Altus 2	!Altus 1	!Cantus
*clefF4	*clefGv2	*clefG2	*clefG2	*clefG2
*k[b-]	*k[b-]	*k[b-]	*k[b-]	*k[b-]
*G:dor	*G:dor	*G:dor	*G:dor	*G:dor
*M4/2	*M4/2	*M4/2	*M4/2	*M4/2
=1	=1	=1	=1	=1
0r	0r	1g	0r	1r
.	.	2.b-	.	[1dd
.	.	4a	.	.
=2	=2	=2	=2	=2
0r	0r	2g	1r	1dd]
.	.	2f	.	.
.	.	1e	1g	1cc
=3	=3	=3	=3	=3
1G	0r	1d	2.b-	0dd
.	.	.	4a	.
1B-	.	1r	2g	.
.	.	.	2f	.
=4	=4	=4	=4	=4
1c	0r	2r	1e-	1g
.	.	1g	.	.
[1G	.	.	2d	[1dd
.	.	[2b-	[2g	.
=5	=5	=5	=5	=5
1G]	1d	2b-]	2g]	1dd]
.	.	2g	2.b-	.
1r	1f	1r	.	1cc
.	.	.	4a	.
.	.	.	[2a	.
=6	=6	=6	=6	=6
0r	1g	1r	4a]	1b-
.	.	.	4g	.
.	.	.	1g	.
.	1d	2r	.	1a
.	.	2a	2f#	.
=7	=7	=7	=7	=7
1G	1r	2.b-	1g	4g
.	.	.	.	4a
.	.	.	.	4b-
.	.	4a	.	4cc
2.B-	[1d	2g	1r	1dd
.	.	2f	.	.
4A	.	.	.	.
=8	=8	=8	=8	=8
2G	1d]	2b-	0r	1r
2F	.	4a	.	.
.	.	4f	.	.
1E	1c#	1g	.	1ee
=9	=9	=9	=9	=9
0D	0d	2f	1a	2.ff
.	.	2d	.	.
.	.	.	.	4ee
.	.	1r	2b-	2dd
.	.	.	[2a	2cc
=10	=10	=10	=10	=10
0r	1G	1r	4a]	1b-
.	.	.	4g	.
.	.	.	1g	.
.	[1d	2r	.	1a
.	.	[2a	4f	.
.	.	.	4e	.
=11	=11	=11	=11	=11
1D	1d]	2a]	0f	1r
.	.	2.b-	.	.
1F	1c	.	.	2r
.	.	4a	.	.
.	.	[2a	.	2a
=12	=12	=12	=12	=12
1G	1B-	4a]	0d	2.b-
.	.	4g	.	.
.	.	1g	.	.
.	.	.	.	4cc
1D	1A	.	.	1dd
.	.	2f#	.	.
=13	=13	=13	=13	=13
0G	1G	2g	2r	2b-
.	.	1b-	1g	1dd
.	1r	.	.	.
.	.	2b-	2d	2dd
=14	=14	=14	=14	=14
0r	0r	1a	1f	1cc
.	.	1g	2g	1b-
.	.	.	2G	.
=15	=15	=15	=15	=15
0r	2r	2f	1d	2a
.	1d	1a	.	2.f
.	.	.	1r	.
.	.	.	.	4g
.	2d	2f	.	4a
.	.	.	.	4b-
=16	=16	=16	=16	=16
0r	1c	2a	0r	4cc
.	.	.	.	4dd
.	.	2.g	.	2.ee
.	1B-	.	.	.
.	.	4f	.	4dd
.	.	4f	.	[2dd
.	.	8e	.	.
.	.	8d	.	.
=17	=17	=17	=17	=17
1r	1A	1e	1r	2dd]
.	.	.	.	2cc#
[1G	2r	1d	[1b-	[1dd
.	[2B-	.	.	.
=18	=18	=18	=18	=18
2G]	4B-]	2r	2b-]	1dd]
.	4c	.	.	.
2G	4d	2B-	2b-	.
.	4e	.	.	.
1F	4f	2c	1a	1r
.	4e	.	.	.
.	[2d	2d	.	.
=19	=19	=19	=19	=19
1E-	2d]	1G	1g	0r
.	2c	.	.	.
2D	2.d	2A	2.f	.
[2BB-	.	[2d	.	.
.	4e	.	4e	.
=20	=20	=20	=20	=20
4BB-]	1.f	2d]	4d	0r
4C	.	.	4e	.
4D	.	2d	4f	.
4E	.	.	4g	.
4F	.	1c	1a	.
4G	.	.	.	.
[2A	2e	.	.	.
=21	=21	=21	=21	=21
4A]	[0d	1B-	1r	0r
4G	.	.	.	.
1G	.	.	.	.
.	.	1A	2r	.
2F#	.	.	2a	.
=22	=22	=22	=22	=22
1G	0d]	2r	2b-	2r
.	.	2.B-	2g	1dd
1r	.	.	2.f	.
.	.	4c	.	.
.	.	4d	.	2dd
.	.	4e	4g	.
=23	=23	=23	=23	=23
1F	0r	4f	4a	1cc
.	.	4g	4g	.
.	.	2.a	4f	.
.	.	.	4e	.
1G	.	.	[1d	1b-
.	.	4g	.	.
.	.	[2g	.	.
=24	=24	=24	=24	=24
1D	1r	2g]	2d]	1a
.	.	2f#	2d	.
1G	[1d	1g	4B-	2.b-
.	.	.	4c	.
.	.	.	4d	.
.	.	.	4e	4cc
=25	=25	=25	=25	=25
0r	2d]	2.a	4f	4dd
.	.	.	4g	4ee
.	2d	.	1a	2.ff
.	.	4b-	.	.
.	1c	2cc	.	.
.	.	.	.	4ee
.	.	2c	[2g	[2ee
=26	=26	=26	=26	=26
0r	1B-	1d	4g]	4ee]
.	.	.	4f	4dd
.	.	.	4f	2.dd
.	.	.	8e	.
.	.	.	8d	.
.	2.A	2r	2.e	.
.	.	.	.	4cc
.	.	[2a	.	[2cc
.	4B-	.	4d	.
=27	=27	=27	=27	=27
0r	2c	2a]	2e	2cc]
.	2d	2a	2f	4b-
.	.	.	.	4a
.	1G	1g	2d	2b-
.	.	.	[2e	2b-
=28	=28	=28	=28	=28
0r	0A	1f	2e]	0a
.	.	.	1d	.
.	.	1e	.	.
.	.	.	2c#	.
=29	=29	=29	=29	=29
2r	0r	2.d	4d	1.ff
.	.	.	4e	.
1d	.	.	4f	.
.	.	4e	4g	.
.	.	4f	2a	.
.	.	4g	.	.
2d	.	4a	2f	2ff
.	.	4b-	.	.
=30	=30	=30	=30	=30
1c	0r	2cc	2g	1ee
.	.	1a	2c	.
1B-	.	.	1d	1dd
.	.	2g	.	.
=31	=31	=31	=31	=31
2A	2r	1a	2e	2cc
2.D	1d	.	2d	2.f
.	.	2r	2r	.
4E	.	.	.	4g
4F	2d	2f	[2a	4a
4G	.	.	.	4b-
=32	=32	=32	=32	=32
2A	1c	2e	2a]	2cc
2F	.	2f	2a	2a
1G	1B-	1d	1g	[1dd
=33	=33	=33	=33	=33
1.D	2A	2d	2f	1dd]
.	4F	1f	4d	.
.	4G	.	4e	.
.	4A	.	4f	1r
.	4B-	.	4g	.
2C	[2c	[2e-	[2a	.
=34	=34	=34	=34	=34
1E-	4c]	2e-]	2a]	1r
.	4B-	.	.	.
.	4A	2c	1g	.
.	4G	.	.	.
1D	2A	1d	.	2r
.	2A	.	2f#	[2dd
=35	=35	=35	=35	=35
1G	1G	1B-	[0g	2dd]
.	.	.	.	2dd
1C	2r	2e-	.	1cc
.	[2G	2e-	.	.
=36	=36	=36	=36	=36
0G	4G]	1d	0g]	2b-
.	4A	.	.	.
.	4B-	.	.	4g
.	4c	.	.	4a
.	2d	2G	.	4b-
.	.	.	.	4cc
.	2B-	2g	.	2dd
=37	=37	=37	=37	=37
0C	4e-	4g	[0g	1.cc
.	4d	4f	.	.
.	4c	4e-	.	.
.	4B-	4d	.	.
.	2c	2e-	.	.
.	2c	2e-	.	2cc
=38	=38	=38	=38	=38
0G	0B	0d	0g]	0dd
*	*	*	*	*-
!! Pleni
*Itenor	*Icalto	*Icalto	*Icant
!Tenor	!Altus 2	!Altus 1	!Cantus
*clefGv2	*clefG2	*clefG2	*clefG2
*k[b-]	*k[b-]	*k[b-]	*k[b-]
*G:dor	*G:dor	*G:dor	*G:dor
*M4/2	*M4/2	*M4/2	*M4/2
=39	=39	=39	=39
0r	0r	1d	1dd
.	.	2e	2g
.	.	2f	2a
=40	=40	=40	=40
0r	0r	1g	1b-
.	.	2f	2a
.	.	2d	2a
=41	=41	=41	=41
0r	0r	4e	4g
.	.	4f	4a
.	.	4g	4b-
.	.	4e	4cc
.	.	4f	4dd
.	.	4g	4ee
.	.	[2a	[2ff
=42	=42	=42	=42
1d	0r	4a]	4ff]
.	.	4g	4ee
.	.	2f	1dd
2G	.	1e	.
2A	.	.	2cc#
=43	=43	=43	=43
1B-	2r	1d	1.dd
.	2d	.	.
2A	2e	1r	.
2A	2f	.	2cc
=44	=44	=44	=44
4G	1g	0r	1b-
4A	.	.	.
4B-	.	.	.
4c	.	.	.
4d	2f	.	1a
4e	.	.	.
[2f	4d	.	.
.	4e	.	.
=45	=45	=45	=45
4f]	4f	1a	2r
4e	4g	.	.
1d	4a	.	2dd
.	4b-	.	.
.	1a	2d	2ff
2c	.	2e	[2ee
=46	=46	=46	=46
1d	0a	1f	2ee]
.	.	.	1dd
1A	.	2e	.
.	.	2e	2cc
=47	=47	=47	=47
0r	1a	4d	1ff
.	.	4e	.
.	.	4f	.
.	.	4g	.
.	1r	4a	2ee
.	.	4g	.
.	.	[2b-	[2dd
=48	=48	=48	=48
0r	1g	4b-]	4dd]
.	.	4a	4cc
.	.	1g	2b-
.	2c	.	1a
.	2d	2f#	.
=49	=49	=49	=49
1r	1e-	2g	2g
.	.	1b-	1gg
2r	1d	.	.
2d	.	2a	2ff
=50	=50	=50	=50
2e	1r	2g	2ee
2f	.	2f	1dd
1g	2r	1e	.
.	2g	.	2cc#
=51	=51	=51	=51
2f	2a	1d	1dd
2d	2b-	.	.
4e	1cc	1r	1r
4d	.	.	.
4c	.	.	.
4d	.	.	.
=52	=52	=52	=52
4e	2cc	0r	2r
4f	.	.	.
1g	2b-	.	2dd
.	1a	.	2ee
2f	.	.	2ff
=53	=53	=53	=53
1e	1g	2r	1gg
.	.	2g	.
1d	2r	2a	2ff
.	2f	2b-	2dd
=54	=54	=54	=54
1c	2g	1cc	4ee
.	.	.	4ff
.	2g	.	4gg
.	.	.	4ee
2F	2a	2cc	2ff
2G	[2g	2b-	[2ee
=55	=55	=55	=55
0A	2g]	0a	2ee]
.	2f	.	1dd
.	1e	.	.
.	.	.	2cc#
=56	=56	=56	=56
2r	1d	2f	1dd
1d	.	2a	.
.	1r	2b-	1r
2e	.	4cc	.
.	.	4b-	.
=57	=57	=57	=57
4f	0r	4a	2r
4e	.	4g	.
4d	.	2f	1dd
4c	.	.	.
2B-	.	1g	.
2c	.	.	2ee
=58	=58	=58	=58
1d	0r	2f	4ff
.	.	.	4ee
.	.	2.b-	4dd
.	.	.	4cc
1e-	.	.	2b-
.	.	4a	.
.	.	[2g	2cc
=59	=59	=59	=59
1d	2r	2g]	1dd
.	1a	4f#	.
.	.	4e	.
1r	.	2f#	2.dd
.	2b-	2g	.
.	.	.	4dd
=60	=60	=60	=60
2r	4cc	1c	4ee-
.	4b-	.	4dd
2c	4a	.	4cc
.	4g	.	4b-
2d	2f#	1r	2a
2e-	2g	.	[2g
=61	=61	=61	=61
1d	1a	0r	2g]
.	.	.	2f#
1G	1b-	.	2g
.	.	.	2dd
=62	=62	=62	=62
1r	0a	2r	2ee
.	.	1d	1ff
2r	.	.	.
[2A	.	2e	4ee
.	.	.	4dd
=63	=63	=63	=63
2A]	1r	1f	2cc
2B-	.	.	2dd
4c	2r	2e	2g
4B-	.	.	.
4A	[2a	2c	[2cc
4G	.	.	.
=64	=64	=64	=64
2F	2a]	1d	2cc]
2G	2b-	.	2b-
[1A	4cc	2c	4a
.	4b-	.	4g
.	4a	[2f	4f
.	4g	.	4e
=65	=65	=65	=65
1A]	2f	2f]	2d
.	2g	4e	1dd
.	.	4d	.
1A	1a	1e	.
.	.	.	2cc#
=66	=66	=66	=66
1d	2a	2d	0dd
.	1f	1a	.
1r	.	.	.
.	2g	2b-	.
=67	=67	=67	=67
2r	4a	4cc	0r
.	4g	4b-	.
1d	4f	4a	.
.	4g	4g	.
.	4a	2f	.
.	4b-	.	.
2e	[2cc	2g	.
=68	=68	=68	=68
4f	2cc]	1a	2r
4e	.	.	.
4d	2f	.	1dd
4c	.	.	.
2B-	1g	2r	.
2c	.	2cc	2ee
=69	=69	=69	=69
1d	2r	2a	4ff
.	.	.	4ee
.	2f	1b-	4dd
.	.	.	4cc
1e-	1g	.	2b-
.	.	4a	2cc
.	.	4g	.
=70	=70	=70	=70
0d	2a	2f#	0dd
.	1g	2g	.
.	.	1a	.
.	2f#	.	.
=71	=71	=71	=71
0G	0g	0b	0dd
*-	*-	*-	*-
!! Hosanna
**kern	**kern	**kern	**kern	**kern
*Ibass	*Itenor	*Icalto	*Icalto	*Icant
!Bassus	!Tenor	!Altus 2	!Altus 1	!Cantus
*clefF4	*clefGv2	*clefG2	*clefG2	*clefG2
*k[b-]	*k[b-]	*k[b-]	*k[b-]	*k[b-]
*G:dor	*G:dor	*G:dor	*G:dor	*G:dor
*M4/2	*M4/2	*M4/2	*M4/2	*M4/2
=72	=72	=72	=72	=72
0r	0r	1d	0r	0r
.	.	1f	.	.
=73	=73	=73	=73	=73
1G	1r	1g	0r	1r
[1B-	1G	1g	.	[1dd
=74	=74	=74	=74	=74
1B-]	1B-	2f	1d	1dd]
.	.	2g	.	.
1A	1c	1a	1f	1cc
=75	=75	=75	=75	=75
1G	1d	1b-	1g	4b-
.	.	.	.	4cc
.	.	.	.	4dd
.	.	.	.	4ee
1D	1d	2a	1a	[1ff
.	.	2f	.	.
=76	=76	=76	=76	=76
1F	1.c	1f	1a	1ff]
1G	.	1r	[1g	2ee
.	2B	.	.	2dd
=77	=77	=77	=77	=77
0r	2c	1a	2g]	2ee
.	2d	.	2f	4dd
.	.	.	.	4ff
.	1G	1b-	2.g	4ee
.	.	.	.	4dd
.	.	.	.	[2dd
.	.	.	4f	.
=78	=78	=78	=78	=78
1r	1A	1a	1e	2dd]
.	.	.	.	2cc#
1D	2r	1f	2d	1dd
.	2d	.	[2a	.
=79	=79	=79	=79	=79
1F	2c	1a	2a]	0r
.	2f	.	1cc	.
1G	2e	2.g	.	.
.	2d	.	2b-	.
.	.	4f	.	.
=80	=80	=80	=80	=80
1A	2c#	2e	1a	0r
.	1d	2d	.	.
1A	.	1e	1a	.
.	2c#	.	.	.
=81	=81	=81	=81	=81
1.G	1d	1g	2.b-	0r
.	.	.	4a	.
.	2.d	2b-	2g	.
2F#	.	2a	2a	.
.	4c	.	.	.
=82	=82	=82	=82	=82
2.G	4B-	2.b-	1d	1g
.	4A	.	.	.
.	1G	.	.	.
4F	.	4a	.	.
2E-	.	2g	2r	1b-
2D	[2B-	2f	2d	.
=83	=83	=83	=83	=83
1C	2B-]	1e-	2g	1cc
.	2A	.	2c	.
2.BB-	1B-	2d	2f	1dd
.	.	[2b-	[2g	.
4C	.	.	.	.
=84	=84	=84	=84	=84
1D	0r	2b-]	2g]	1dd
.	.	1a	1f	.
1r	.	.	.	[1cc
.	.	2g	2e	.
=85	=85	=85	=85	=85
0r	2r	2a	2f	2cc]
.	2G	2.g	2d	2b
.	2c	.	2e	2cc
.	.	4f	.	.
.	2B	2d	[2g	2dd
=86	=86	=86	=86	=86
0r	2c#	2e	2g]	[0a
.	2d	1d	2f	.
.	1A	.	1e	.
.	.	2c#	.	.
=87	=87	=87	=87	=87
1D	0d	2d	2d	1a]
.	.	2f	2a	.
2G	.	2g	2b-	2r
2F#	.	2a	2a	2a
=88	=88	=88	=88	=88
2G	2r	2b-	2g	2dd
2A	2A	1a	2e	2cc#
2F#	2A	.	[1d	2dd
2G	2B-	2g	.	2dd
=89	=89	=89	=89	=89
0D	2A	2f#	0d]	0dd
.	2G	1g	.	.
.	1A	.	.	.
.	.	2f#	.	.
=90	=90	=90	=90	=90
0G	0G	0g	0d	0b
==	==	==	==	==
*-	*-	*-	*-	*-
!!!CDT: 1525/^1526/-1594/2/2
!!!OCY: Italia
!!!AGN: Mass (Paraphrase)
!!!AST: renaissance, vocal
!!!ASW: Antiphon
!!!PWK: Masses, Book 11
!!!RNB: Cadence finals: D
!!!YOR: Le Opere Complete, v. 28, p. 185
!!!YOO: Rome, Italy: Fratelli Scalera
!!!END: 1992//
!!!EED: John Miller
!!!YEC: Copyright 2000, John Miller
!!!YEN: United States of America
!!!YEM: Rights to all derivative electronic formats reserved.
!!!YEM: Refer to licensing agreement for further details.
!!!YEM: This file must be accompanied by the licensing agreement.
!!!YEM: A copy of the licensing agreement may be found at http://www.music-cog.ohio-state.edu/HumdrumDatabases/Palestrina/license.txt
!!!EMD: converted to Humdrum by Bret Aarden
